X:580
T:Over the Border
B:Kerr's Merry Melodies Bk 1
N:slightly altered
Z:Nigel Gatherer
L:1/8
M:6/8
K:G
G3  G3  | GBA GED | G>EE E2D  | edB A2B  |
G3  G3  | GBA GED | c>de d<gG | GAB A2G :|
GBd dBG | edB BAG | GBd  efg  | GAB BAG  |
GBd dBG | edB BAG | EGE  DEF  | GAB A2G :|]
